source/img/background/icon-alarm.svg

<svg width="33" height="33" viewBox="0 0 33 33" fill="none" xmlns="http://www.w3.org/2000/svg">
<ellipse cx="21.7042" cy="11.3299" rx="1.0873" ry="1.08512" fill="white"/>
<ellipse cx="10.8311" cy="11.3299" rx="1.08731" ry="1.08512" fill="white"/>
<ellipse cx="10.8311" cy="24.3512" rx="1.08731" ry="1.08512" fill="white"/>
<ellipse cx="16.2677" cy="26.5215" rx="1.0873" ry="1.08512" fill="white"/>
<ellipse cx="7.56924" cy="17.7748" rx="1.08731" ry="1.08512" fill="white"/>
<ellipse cx="24.9661" cy="17.7748" rx="1.0873" ry="1.08512" fill="white"/>
<ellipse cx="21.7042" cy="24.3512" rx="1.0873" ry="1.08512" fill="white"/>
<mask id="path-8-inside-1_130_940" fill="white">
<path fill-rule="evenodd" clip-rule="evenodd" d="M21.4215 29.0581C21.8298 28.8622 22.3226 28.9298 22.6385 29.2542L24.4644 31.1292C24.7319 31.4039 25.1734 31.4039 25.441 31.1292C25.6987 30.8645 25.6987 30.4427 25.441 30.1781L24.0843 28.7849C23.6584 28.3475 23.7228 27.6356 24.182 27.2333C26.8238 24.9195 28.5 21.4688 28.5 17.6145C28.5 10.6477 23.0235 5 16.2678 5C9.51218 5 4.03564 10.6477 4.03564 17.6145C4.03564 21.4288 5.67729 24.8477 8.27166 27.1608C8.72438 27.5644 8.78489 28.2708 8.36173 28.7054L6.92757 30.1781C6.66985 30.4427 6.66984 30.8645 6.92756 31.1291C7.19513 31.4039 7.63664 31.4039 7.90421 31.1292L9.78384 29.199C10.1025 28.8718 10.6004 28.8061 11.0102 29.0076C12.603 29.7907 14.3858 30.229 16.2678 30.229C18.109 30.229 19.8553 29.8095 21.4215 29.0581ZM16.2678 28.8274C22.2728 28.8274 27.1409 23.8072 27.1409 17.6145C27.1409 11.4218 22.2728 6.40161 16.2678 6.40161C10.2628 6.40161 5.39478 11.4218 5.39478 17.6145C5.39478 23.8072 10.2628 28.8274 16.2678 28.8274ZM15.5083 17.298V13.5001V9.94092C15.5083 9.50942 15.8581 9.15963 16.2895 9.15963C16.721 9.15963 17.0708 9.50942 17.0708 9.94092V13.5001V17.298V17.8406V18.1226C17.0708 18.5661 16.7113 18.9257 16.2677 18.9257C15.8483 18.9257 15.5083 18.5857 15.5083 18.1663V17.8406V17.298Z"/>
</mask>
<path fill-rule="evenodd" clip-rule="evenodd" d="M21.4215 29.0581C21.8298 28.8622 22.3226 28.9298 22.6385 29.2542L24.4644 31.1292C24.7319 31.4039 25.1734 31.4039 25.441 31.1292C25.6987 30.8645 25.6987 30.4427 25.441 30.1781L24.0843 28.7849C23.6584 28.3475 23.7228 27.6356 24.182 27.2333C26.8238 24.9195 28.5 21.4688 28.5 17.6145C28.5 10.6477 23.0235 5 16.2678 5C9.51218 5 4.03564 10.6477 4.03564 17.6145C4.03564 21.4288 5.67729 24.8477 8.27166 27.1608C8.72438 27.5644 8.78489 28.2708 8.36173 28.7054L6.92757 30.1781C6.66985 30.4427 6.66984 30.8645 6.92756 31.1291C7.19513 31.4039 7.63664 31.4039 7.90421 31.1292L9.78384 29.199C10.1025 28.8718 10.6004 28.8061 11.0102 29.0076C12.603 29.7907 14.3858 30.229 16.2678 30.229C18.109 30.229 19.8553 29.8095 21.4215 29.0581ZM16.2678 28.8274C22.2728 28.8274 27.1409 23.8072 27.1409 17.6145C27.1409 11.4218 22.2728 6.40161 16.2678 6.40161C10.2628 6.40161 5.39478 11.4218 5.39478 17.6145C5.39478 23.8072 10.2628 28.8274 16.2678 28.8274ZM15.5083 17.298V13.5001V9.94092C15.5083 9.50942 15.8581 9.15963 16.2895 9.15963C16.721 9.15963 17.0708 9.50942 17.0708 9.94092V13.5001V17.298V17.8406V18.1226C17.0708 18.5661 16.7113 18.9257 16.2677 18.9257C15.8483 18.9257 15.5083 18.5857 15.5083 18.1663V17.8406V17.298Z" fill="white"/>
<path d="M9.78384 29.199L12.6495 31.9896L9.78384 29.199ZM11.0102 29.0076L12.775 25.418L11.0102 29.0076ZM7.90421 31.1292L5.03851 28.3385L7.90421 31.1292ZM6.92757 30.1781L9.79325 32.9687L6.92757 30.1781ZM24.0843 28.7849L21.2186 31.5756L24.0843 28.7849ZM24.182 27.2333L21.5465 24.2243L24.182 27.2333ZM8.27166 27.1608L5.60971 30.1464L8.27166 27.1608ZM8.36173 28.7054L5.49605 25.9147L8.36173 28.7054ZM25.441 30.1781L28.3067 27.3874L25.441 30.1781ZM24.4644 31.1292L27.3301 28.3385L24.4644 31.1292ZM22.6385 29.2542L19.7728 32.0449L22.6385 29.2542ZM21.4215 29.0581L19.6913 25.4516L21.4215 29.0581ZM19.7728 32.0449L21.5987 33.9198L27.3301 28.3385L25.5042 26.4636L19.7728 32.0449ZM28.3067 27.3874L26.95 25.9942L21.2186 31.5756L22.5753 32.9688L28.3067 27.3874ZM26.8175 30.2423C30.3075 27.1855 32.5 22.6466 32.5 17.6145H24.5C24.5 20.2911 23.3401 22.6534 21.5465 24.2243L26.8175 30.2423ZM32.5 17.6145C32.5 8.5555 25.3478 1 16.2678 1V9C20.6992 9 24.5 12.7399 24.5 17.6145H32.5ZM16.2678 1C7.18789 1 0.0356445 8.5555 0.0356445 17.6145H8.03564C8.03564 12.7399 11.8365 9 16.2678 9V1ZM0.0356445 17.6145C0.0356445 22.5943 2.18296 27.0912 5.60971 30.1464L10.9336 24.1752C9.17162 22.6042 8.03564 20.2633 8.03564 17.6145H0.0356445ZM5.49605 25.9147L4.06188 27.3874L9.79325 32.9687L11.2274 31.496L5.49605 25.9147ZM10.7699 33.9198L12.6495 31.9896L6.91814 26.4083L5.03851 28.3385L10.7699 33.9198ZM9.24538 32.5972C11.3722 33.6429 13.7573 34.229 16.2678 34.229V26.229C15.0143 26.229 13.8337 25.9385 12.775 25.418L9.24538 32.5972ZM16.2678 34.229C18.7236 34.229 21.0598 33.6681 23.1517 32.6645L19.6913 25.4516C18.6508 25.9508 17.4944 26.229 16.2678 26.229V34.229ZM16.2678 32.8274C24.5971 32.8274 31.1409 25.8994 31.1409 17.6145H23.1409C23.1409 21.715 19.9485 24.8274 16.2678 24.8274V32.8274ZM31.1409 17.6145C31.1409 9.32959 24.5971 2.40161 16.2678 2.40161V10.4016C19.9485 10.4016 23.1409 13.514 23.1409 17.6145H31.1409ZM16.2678 2.40161C7.93851 2.40161 1.39478 9.32959 1.39478 17.6145H9.39478C9.39478 13.514 12.5871 10.4016 16.2678 10.4016V2.40161ZM1.39478 17.6145C1.39478 25.8994 7.93851 32.8274 16.2678 32.8274V24.8274C12.5871 24.8274 9.39478 21.715 9.39478 17.6145H1.39478ZM13.0708 17.298V17.8406H21.0708V17.298H13.0708ZM13.0708 17.8406V18.1226H21.0708V17.8406H13.0708ZM19.5083 18.1663V17.8406H11.5083V18.1663H19.5083ZM19.5083 17.8406V17.298H11.5083V17.8406H19.5083ZM19.5083 17.298V13.5001H11.5083V17.298H19.5083ZM19.5083 13.5001V9.94092H11.5083V13.5001H19.5083ZM13.0708 9.94092V13.5001H21.0708V9.94092H13.0708ZM13.0708 13.5001V17.298H21.0708V13.5001H13.0708ZM16.2895 5.15963C13.6489 5.15963 11.5083 7.30029 11.5083 9.94092H19.5083C19.5083 11.7186 18.0672 13.1596 16.2895 13.1596V5.15963ZM13.0708 18.1226C13.0708 16.357 14.5021 14.9257 16.2677 14.9257V22.9257C18.9204 22.9257 21.0708 20.7753 21.0708 18.1226H13.0708ZM12.6495 31.9896C11.6569 33.009 10.2521 33.0922 9.24538 32.5972L12.775 25.418C10.9487 24.52 8.54805 24.7346 6.91814 26.4083L12.6495 31.9896ZM4.06185 33.9198C5.89966 35.807 8.9321 35.807 10.7699 33.9198L5.03851 28.3385C6.34118 27.0008 8.49061 27.0008 9.79327 28.3385L4.06185 33.9198ZM4.06188 27.3874C2.29175 29.2051 2.29174 32.1021 4.06185 33.9198L9.79327 28.3385C11.048 29.6269 11.0479 31.6803 9.79325 32.9687L4.06188 27.3874ZM26.95 25.9942C28.2927 27.3731 27.894 29.2994 26.8175 30.2423L21.5465 24.2243C19.5515 25.9717 19.024 29.3219 21.2186 31.5756L26.95 25.9942ZM16.2895 13.1596C14.5119 13.1596 13.0708 11.7186 13.0708 9.94092H21.0708C21.0708 7.30028 18.9302 5.15963 16.2895 5.15963V13.1596ZM5.60971 30.1464C4.5463 29.1983 4.16263 27.2839 5.49605 25.9147L11.2274 31.496C13.4071 29.2577 12.9025 25.9306 10.9336 24.1752L5.60971 30.1464ZM28.3067 33.9198C30.0768 32.1021 30.0768 29.2051 28.3067 27.3874L22.5753 32.9688C21.3206 31.6803 21.3206 29.6269 22.5753 28.3385L28.3067 33.9198ZM21.5987 33.9198C23.4365 35.807 26.4689 35.807 28.3067 33.9198L22.5753 28.3385C23.878 27.0008 26.0274 27.0008 27.3301 28.3385L21.5987 33.9198ZM16.2677 14.9257C18.0574 14.9257 19.5083 16.3765 19.5083 18.1663H11.5083C11.5083 20.7948 13.6391 22.9257 16.2677 22.9257V14.9257ZM25.5042 26.4636C23.8881 24.804 21.5117 24.5783 19.6913 25.4516L23.1517 32.6645C22.148 33.1461 20.757 33.0555 19.7728 32.0449L25.5042 26.4636Z" fill="white" mask="url(#path-8-inside-1_130_940)"/>
<rect x="15.5" y="6" width="4" height="1.5" transform="rotate(-90 15.5 6)" fill="white"/>
<rect x="8.5" y="2" width="15.5" height="1.5" rx="0.75" fill="white"/>
</svg>

<svg width="33" height="33" fill="none" xmlns="http://www.w3.org/2000/svg"><circle cx="21.7" cy="11.33" fill="#fff" r="1.09"/><circle cx="10.83" cy="11.33" fill="#fff" r="1.09"/><circle cx="10.83" cy="24.35" fill="#fff" r="1.09"/><circle cx="16.27" cy="26.52" fill="#fff" r="1.09"/><circle cx="7.57" cy="17.77" fill="#fff" r="1.09"/><circle cx="24.97" cy="17.77" fill="#fff" r="1.09"/><circle cx="21.7" cy="24.35" fill="#fff" r="1.09"/><mask id="a" fill="#fff"><path fill-rule="evenodd" clip-rule="evenodd" d="M21.42 29.06c.41-.2.9-.13 1.22.2l1.82 1.87a.68.68 0 0 0 .98-.95l-1.36-1.4c-.42-.43-.36-1.14.1-1.55a12.75 12.75 0 0 0 4.32-9.62C28.5 10.65 23.02 5 16.27 5 9.5 5 4.04 10.65 4.04 17.61c0 3.82 1.64 7.24 4.23 9.55.45.4.51 1.11.1 1.55l-1.44 1.47a.68.68 0 1 0 .97.95l1.88-1.93c.32-.33.82-.4 1.23-.2a11.88 11.88 0 0 0 10.41.06Zm-5.15-.23c6 0 10.87-5.02 10.87-11.22 0-6.19-4.87-11.2-10.87-11.2-6 0-10.88 5.01-10.88 11.2 0 6.2 4.87 11.22 10.88 11.22ZM15.5 17.3V9.94a.78.78 0 1 1 1.56 0v8.18a.8.8 0 0 1-.8.8.76.76 0 0 1-.76-.75V17.3Z"/></mask><path fill-rule="evenodd" clip-rule="evenodd" d="M21.42 29.06c.41-.2.9-.13 1.22.2l1.82 1.87a.68.68 0 0 0 .98-.95l-1.36-1.4c-.42-.43-.36-1.14.1-1.55a12.75 12.75 0 0 0 4.32-9.62C28.5 10.65 23.02 5 16.27 5 9.5 5 4.04 10.65 4.04 17.61c0 3.82 1.64 7.24 4.23 9.55.45.4.51 1.11.1 1.55l-1.44 1.47a.68.68 0 1 0 .97.95l1.88-1.93c.32-.33.82-.4 1.23-.2a11.88 11.88 0 0 0 10.41.06Zm-5.15-.23c6 0 10.87-5.02 10.87-11.22 0-6.19-4.87-11.2-10.87-11.2-6 0-10.88 5.01-10.88 11.2 0 6.2 4.87 11.22 10.88 11.22ZM15.5 17.3V9.94a.78.78 0 1 1 1.56 0v8.18a.8.8 0 0 1-.8.8.76.76 0 0 1-.76-.75V17.3Z" fill="#fff"/><path d="m9.78 29.2 2.87 2.79-2.87-2.8Zm1.23-.2 1.77-3.58L11 29Zm-3.1 2.13-2.87-2.8 2.86 2.8Zm-.98-.95 2.86 2.79-2.86-2.8Zm17.15-1.4-2.86 2.8 2.86-2.8Zm.1-1.55-2.63-3 2.63 3Zm-15.9-.07L5.6 30.15l2.66-2.99Zm.08 1.55L5.5 25.9l2.86 2.8Zm17.08 1.47 2.87-2.8-2.87 2.8Zm-.98.95 2.87-2.8-2.87 2.8Zm-1.82-1.88-2.87 2.8 2.87-2.8Zm-1.22-.2-1.73-3.6 1.73 3.6Zm-1.65 3 1.83 1.87 5.73-5.58-1.83-1.88-5.73 5.58Zm8.54-4.66-1.36-1.4-5.73 5.59 1.36 1.39 5.73-5.58Zm-1.5 2.85a16.75 16.75 0 0 0 5.69-12.63h-8a8.75 8.75 0 0 1-2.95 6.61l5.27 6.02Zm5.69-12.63C32.5 8.56 25.35 1 16.27 1v8c4.43 0 8.23 3.74 8.23 8.61h8ZM16.27 1C7.19 1 .04 8.56.04 17.61h8c0-4.87 3.8-8.61 8.23-8.61V1ZM.04 17.61c0 4.98 2.14 9.48 5.57 12.54l5.32-5.97a8.75 8.75 0 0 1-2.9-6.57h-8Zm5.46 8.3L4.06 27.4l5.73 5.58 1.44-1.47L5.5 25.9Zm5.27 8.01 1.88-1.93-5.73-5.58-1.88 1.93 5.73 5.58ZM9.25 32.6a15.88 15.88 0 0 0 7.02 1.63v-8a7.88 7.88 0 0 1-3.5-.81L9.26 32.6Zm7.02 1.63c2.45 0 4.79-.56 6.88-1.57l-3.46-7.2c-1.04.5-2.2.77-3.42.77v8Zm0-1.4c8.33 0 14.87-6.93 14.87-15.22h-8c0 4.1-3.2 7.22-6.87 7.22v8ZM31.14 17.6c0-8.28-6.54-15.2-14.87-15.2v8c3.68 0 6.87 3.1 6.87 7.2h8ZM16.27 2.41C7.94 2.4 1.39 9.32 1.39 17.6h8c0-4.1 3.2-7.2 6.88-7.2v-8ZM1.39 17.6c0 8.29 6.55 15.22 14.88 15.22v-8c-3.68 0-6.88-3.11-6.88-7.22h-8Zm11.68-.31v.54h8v-.54h-8Zm0 .54v.28h8v-.28h-8Zm6.44.33v-.33h-8v.33h8Zm0-.33v-.54h-8v.54h8Zm0-.54v-3.8h-8v3.8h8Zm0-3.8V9.94h-8v3.56h8Zm-6.44-3.56v3.56h8V9.94h-8Zm0 3.56v3.8h8v-3.8h-8Zm3.22-8.34a4.78 4.78 0 0 0-4.78 4.78h8a3.22 3.22 0 0 1-3.22 3.22v-8Zm-3.22 12.96a3.2 3.2 0 0 1 3.2-3.2v8a4.8 4.8 0 0 0 4.8-4.8h-8ZM12.65 32c-1 1.02-2.4 1.1-3.4.6l3.53-7.17a5.06 5.06 0 0 0-5.86.99l5.73 5.58Zm-8.59 1.93a4.68 4.68 0 0 0 6.71 0l-5.73-5.58a3.32 3.32 0 0 1 4.75 0l-5.73 5.58Zm0-6.53a4.68 4.68 0 0 0 0 6.53l5.73-5.58a3.32 3.32 0 0 1 0 4.63l-5.73-5.58Zm22.89-1.4a2.93 2.93 0 0 1-.13 4.25l-5.27-6.02a5.08 5.08 0 0 0-.33 7.36l5.73-5.59ZM16.29 13.16a3.22 3.22 0 0 1-3.22-3.22h8a4.78 4.78 0 0 0-4.78-4.78v8ZM5.61 30.15a2.93 2.93 0 0 1-.11-4.24l5.73 5.59a5.07 5.07 0 0 0-.3-7.32l-5.32 5.97Zm22.7 3.77a4.68 4.68 0 0 0 0-6.53l-5.73 5.58a3.32 3.32 0 0 1 0-4.63l5.73 5.58Zm-6.71 0a4.68 4.68 0 0 0 6.7 0l-5.72-5.58a3.32 3.32 0 0 1 4.75 0l-5.73 5.58Zm-5.33-19a3.24 3.24 0 0 1 3.24 3.25h-8a4.76 4.76 0 0 0 4.76 4.76v-8Zm9.23 11.54a5.06 5.06 0 0 0-5.8-1l3.45 7.2c-1 .49-2.4.4-3.38-.62l5.73-5.58Z" fill="#fff" mask="url(#a)"/><path fill="#fff" d="M15.5 6V2H17v4z"/><rect x="8.5" y="2" width="15.5" height="1.5" rx=".75" fill="#fff"/></svg>
